build/svg/sfx2/res/indexon_small.svg

<?xml version="1.0" encoding="UTF-8" standalone="no"?>
<svg
   xmlns:dc="http://purl.org/dc/elements/1.1/"
   xmlns:cc="http://creativecommons.org/ns#"
   xmlns:rdf="http://www.w3.org/1999/02/22-rdf-syntax-ns#"
   xmlns:svg="http://www.w3.org/2000/svg"
   xmlns="http://www.w3.org/2000/svg"
   xmlns:sodipodi="http://sodipodi.sourceforge.net/DTD/sodipodi-0.dtd"
   xmlns:inkscape="http://www.inkscape.org/namespaces/inkscape"
   viewBox="0 0 16 16"
   version="1.1"
   id="svg4"
   sodipodi:docname="indexon_small.svg"
   inkscape:version="0.92.5 (2060ec1f9f, 2020-04-08)"
   inkscape:export-filename="/home/jupiter007/Libreoffice yaru theme fullcolor/build/sfx2/res/indexon_small.png"
   inkscape:export-xdpi="96"
   inkscape:export-ydpi="96">
  <metadata
     id="metadata10">
    <rdf:RDF>
      <cc:Work
         rdf:about="">
        <dc:format>image/svg+xml</dc:format>
        <dc:type
           rdf:resource="http://purl.org/dc/dcmitype/StillImage" />
      </cc:Work>
    </rdf:RDF>
  </metadata>
  <defs
     id="defs8" />
  <sodipodi:namedview
     pagecolor="#ffffff"
     bordercolor="#666666"
     borderopacity="1"
     objecttolerance="10"
     gridtolerance="10"
     guidetolerance="10"
     inkscape:pageopacity="0"
     inkscape:pageshadow="2"
     inkscape:window-width="1920"
     inkscape:window-height="1011"
     id="namedview6"
     showgrid="true"
     inkscape:zoom="41.7193"
     inkscape:cx="0.33030301"
     inkscape:cy="9.2754849"
     inkscape:window-x="0"
     inkscape:window-y="32"
     inkscape:window-maximized="1"
     inkscape:current-layer="svg4">
    <inkscape:grid
       type="xygrid"
       id="grid817" />
  </sodipodi:namedview>
  <path
     d="m 3.9738691,1.5 c -0.817,0 -1.474,0.657 -1.474,1.474 l 2.5e-4,10.526 H 13.500119 l -2.5e-4,-10.526 c -1.9e-5,-0.817 -0.657,-1.474 -1.474,-1.474 z"
     id="path22"
     inkscape:connector-curvature="0"
     style="fill:#ffffff;stroke:#8c8c8c"
     sodipodi:nodetypes="ssccsss" />
  <path
     d="m 2.9998691,6 h 9.9999999 l 2.5e-4,7 H 3.0001191 Z"
     id="path26"
     inkscape:connector-curvature="0"
     style="fill:#ffffff"
     sodipodi:nodetypes="ccccc" />
  <path
     d="M 2.9998691,5.5 H 12.999869"
     id="path28"
     inkscape:connector-curvature="0"
     style="fill:none;stroke:#8c8c8c"
     sodipodi:nodetypes="cc" />
  <path
     style="fill:#8c8c8c;stroke-width:2"
     d="m 8.9993687,3 h -2 v 2 h 2 z"
     id="path841"
     inkscape:connector-curvature="0"
     sodipodi:nodetypes="ccccc" />
  <path
     style="fill:#ff0000;stroke-width:2.0002501"
     d="M 11.999869,3 H 9.9993691 v 2 h 2.0004999 z"
     id="path30"
     inkscape:connector-curvature="0"
     sodipodi:nodetypes="ccccc" />
  <path
     style="fill:#d85eca;fill-opacity:1;stroke-width:1.03507984"
     d="m 7,5 h -1 -2.9999999 -1 l 2.5e-4,8.013798 v 1 H 7.00025 v -1 L 7,6 Z m -1,1 2.5e-4,7.013798 h -3 L 3.0000001,6 Z"
     id="path32"
     inkscape:connector-curvature="0"
     sodipodi:nodetypes="ccccccccccccccc" />
  <path
     d="m 6,6 2.5e-4,7.013798 h -3 L 3.0000001,6 Z"
     id="path34"
     inkscape:connector-curvature="0"
     style="opacity:1;fill:#ebaee4;fill-opacity:1;stroke-width:1.03772902"
     sodipodi:nodetypes="ccccc" />
  <circle
     style="opacity:0.6;fill:#000000;fill-opacity:1;fill-rule:evenodd;stroke:#000000;stroke-width:2;stroke-linecap:butt;stroke-linejoin:round;stroke-miterlimit:4;stroke-dasharray:none;stroke-opacity:1"
     id="path831"
     cx="12"
     cy="12"
     r="3" />
  <circle
     r="3"
     cy="12"
     cx="12"
     id="circle833"
     style="opacity:1;fill:#ffffff;fill-opacity:1;fill-rule:evenodd;stroke:none;stroke-width:2;stroke-linecap:butt;stroke-linejoin:round;stroke-miterlimit:4;stroke-dasharray:none;stroke-opacity:1" />
  <path
     d="m 11.999999,9.9999997 c -1.104569,0 -1.9999997,0.8954313 -1.9999997,2.0000003 0,1.10457 0.8954307,2 1.9999997,2 1.104569,0 2,-0.89543 2,-2 0.02896,-0.194894 0.02896,-0.392997 0,-0.587891 -0.174008,0.38903 -0.57545,0.625034 -1,0.587891 -0.552285,0 -1,-0.447715 -1,-1 -0.03682,-0.425027 0.200048,-0.826612 0.589844,-1.0000003 -0.195534,-0.02915 -0.39431,-0.02915 -0.589844,0 z"
     id="path2-3"
     inkscape:connector-curvature="0"
     style="fill:#232629"
     sodipodi:nodetypes="csscccccc" />
</svg>

<svg xmlns="http://www.w3.org/2000/svg" viewBox="0 0 16 16"><path d="M3.974 1.5A1.47 1.47 0 002.5 2.974V13.5h11V2.974A1.47 1.47 0 0012.026 1.5z" fill="#fff" stroke="#8c8c8c"/><path d="M3 6h10v7H3z" fill="#fff"/><path d="M3 5.5h10" fill="none" stroke="#8c8c8c"/><path d="M9 3H7v2h2z" fill="#8c8c8c"/><path d="M12 3h-2v2h2z" fill="red"/><path d="M7 5H2v9.014h5V6zM6 6v7.014H3V6z" fill="#d85eca"/><path d="M6 6v7.014H3V6z" fill="#ebaee4"/><circle cx="12" cy="12" r="3" opacity=".6" fill-rule="evenodd" stroke="#000" stroke-width="2" stroke-linejoin="round"/><circle r="3" cy="12" cx="12" fill="#fff" fill-rule="evenodd"/><path d="M12 10a2 2 0 102 2 2 2 0 000-.588A1 1 0 0113 12a1 1 0 01-1-1 1 1 0 01.59-1 2 2 0 00-.59 0z" fill="#232629"/></svg>
